dist/img/svg/icon-menu-about.svg

<svg width="13" height="13" viewBox="0 0 13 13" fill="none" xmlns="http://www.w3.org/2000/svg">
<path d="M13.0009 6.49765C13.0009 4.46958 13.0009 2.44228 13.0009 0.414976C13.0009 0.0319813 12.9682 0 12.5836 0C8.54903 0.000780031 4.51363 0.00156006 0.479011 0.00312012C0.0102688 0.00312012 0.0071488 0.00936034 0.0071488 0.475819C0.0071488 3.10764 0.0149488 5.73946 0.00168986 8.37129C-0.00532958 9.7184 0.345642 10.9126 1.35566 11.8557C2.17928 12.6248 3.17058 12.9852 4.28277 12.9906C7.07962 13.0031 9.87726 12.9937 12.6741 13.0008C12.9705 13.0015 13.0009 12.8424 13.0001 12.61C12.9962 10.5725 12.9978 8.53587 12.9978 6.49843L13.0009 6.49765ZM11.5268 6.49999C11.5268 8.03977 11.5268 9.57877 11.5268 11.1186C11.5268 11.5148 11.5253 11.5203 11.147 11.5203C8.78925 11.5211 6.4315 11.5289 4.07374 11.5148C2.70183 11.507 1.49527 10.2987 1.48669 8.92511C1.47343 6.56708 1.48591 4.20904 1.47499 1.85101C1.47343 1.55928 1.55845 1.46646 1.85638 1.46724C4.95429 1.4766 8.05221 1.4766 11.1509 1.46724C11.4473 1.46646 11.5346 1.55772 11.5323 1.85101C11.5198 3.40171 11.5268 4.95085 11.5268 6.49999Z" fill="white"/>
<path d="M6.52041 3.7652C7.77611 3.7652 9.03181 3.76598 10.2875 3.7652C10.672 3.7652 10.672 3.76364 10.6744 3.37129C10.6751 3.12792 10.665 2.88377 10.679 2.64118C10.6931 2.39859 10.5917 2.32059 10.3554 2.32215C9.16752 2.32995 7.97967 2.32527 6.79261 2.32527C5.43006 2.32527 4.06673 2.33385 2.70418 2.32059C2.40624 2.31747 2.30173 2.41185 2.32747 2.70514C2.34931 2.94695 2.34619 3.19266 2.32903 3.43447C2.31109 3.69344 2.41326 3.77144 2.66596 3.7691C3.94974 3.75974 5.23508 3.7652 6.52041 3.7652Z" fill="white"/>
<path d="M7.057 8.07023C5.98537 8.07023 4.91451 8.06867 3.84288 8.07101C3.49113 8.07179 3.46071 8.10455 3.45993 8.45634C3.45915 8.69971 3.47319 8.94386 3.45915 9.18645C3.44355 9.45322 3.55274 9.54604 3.81714 9.5437C4.85914 9.53512 5.90113 9.54292 6.94391 9.54292C8.0639 9.54292 9.18389 9.53512 10.3039 9.54526C10.5745 9.5476 10.7032 9.47506 10.679 9.18333C10.6587 8.94152 10.6603 8.69503 10.6798 8.45322C10.704 8.16149 10.5979 8.05774 10.3008 8.06243C9.43425 8.07725 8.56696 8.06789 7.70045 8.06789C7.48596 8.06789 7.27226 8.06789 7.05778 8.06789L7.057 8.07023Z" fill="white"/>
<path d="M8.80251 7.21842C9.31805 7.21842 9.83359 7.21061 10.3491 7.22232C10.5823 7.22778 10.6907 7.15913 10.6775 6.90952C10.6627 6.61857 10.6705 6.32606 10.6751 6.03433C10.6775 5.87052 10.6205 5.77926 10.4412 5.77926C9.34223 5.7816 8.24252 5.7816 7.14358 5.78004C6.99929 5.78004 6.9213 5.84478 6.91974 5.98675C6.91662 6.32684 6.91818 6.66771 6.91974 7.00781C6.9213 7.19501 7.04375 7.22076 7.1974 7.2192C7.73244 7.21608 8.26747 7.21764 8.80251 7.21842Z" fill="white"/>
<path d="M4.19229 7.21998C4.71719 7.21998 5.24287 7.21062 5.76777 7.22388C6.01111 7.23012 6.10002 7.13574 6.09144 6.90095C6.0813 6.61936 6.08598 6.33699 6.0891 6.05462C6.09144 5.86273 6.01657 5.77536 5.81222 5.77692C4.74293 5.78316 3.67285 5.78316 2.60356 5.7777C2.40311 5.77692 2.322 5.85415 2.32824 6.05383C2.33682 6.34557 2.33994 6.6373 2.32902 6.92903C2.32122 7.1412 2.40233 7.22466 2.61759 7.22076C3.14249 7.2114 3.66739 7.21764 4.19307 7.21764L4.19229 7.21998Z" fill="white"/>
</svg>

<svg width="13" height="13" viewBox="0 0 13 13" fill="none" xmlns="http://www.w3.org/2000/svg"><path d="M13 6.498V.415C13 .032 12.969 0 12.585 0L.479.003C.01.003.007.01.007.476c0 2.632.008 5.263-.005 7.895-.007 1.347.344 2.542 1.354 3.485.823.769 1.815 1.13 2.927 1.135 2.797.012 5.594.003 8.391.01.296 0 .327-.159.326-.391-.004-2.037-.002-4.074-.002-6.112H13zm-1.473.002v4.619c0 .396-.002.401-.38.401-2.358.001-4.716.009-7.073-.005-1.372-.008-2.579-1.216-2.587-2.59-.014-2.358-.001-4.716-.012-7.074-.002-.292.083-.385.381-.384 3.098.01 6.196.01 9.295 0 .296 0 .384.09.381.384-.012 1.55-.005 3.1-.005 4.649z" fill="#fff"/><path d="M6.52 3.765h3.768c.384 0 .384-.001.386-.394.001-.243-.009-.487.005-.73.014-.242-.087-.32-.324-.319-1.187.008-2.375.003-3.562.003-1.363 0-2.726.009-4.089-.004-.298-.004-.402.09-.377.384.022.242.02.488.002.73-.018.258.084.336.337.334 1.284-.01 2.57-.004 3.854-.004zm.537 4.305c-1.072 0-2.142-.001-3.214.001-.352 0-.382.034-.383.385 0 .244.013.488 0 .73-.016.267.093.36.357.358 1.042-.009 2.084-.001 3.127-.001 1.12 0 2.24-.008 3.36.002.27.003.4-.07.375-.362a4.472 4.472 0 010-.73c.025-.292-.081-.395-.378-.39-.867.014-1.734.005-2.6.005h-.643l-.001.002zm1.746-.852c.515 0 1.03-.007 1.546.004.233.006.342-.063.329-.312-.015-.291-.008-.584-.003-.876.002-.163-.055-.255-.234-.255a929.43 929.43 0 01-3.297.001c-.145 0-.223.065-.224.207-.003.34-.002.68 0 1.02.001.188.124.214.277.212.535-.003 1.07-.001 1.606 0zm-4.611.002c.525 0 1.05-.01 1.576.004.243.006.332-.088.323-.323-.01-.282-.005-.564-.002-.846.002-.192-.072-.28-.277-.278-1.07.006-2.14.006-3.208 0-.2 0-.282.077-.276.277.009.292.012.583.001.875-.008.212.073.296.289.292.524-.01 1.05-.003 1.575-.003v.002z" fill="#fff"/></svg>
